X:1
T:Title
%%score { 1 | 2 }
L:1/8
Q:1/4=100
M:4/4
K:Db
V:1 treble nm="Grand Piano"
V:2 bass 
V:1
 D2 F>G A2 [Ad]2 | [Af]6 [=Ae]2 | [Bd]3 e d2 B2 | [FA]6 z2 | c2 B>A c2 [CGB]2 | %5
w: D.~B.~Towner * * * *|||||
 [GB]2 [FA]2 [Ad]2 [Be]2 | f3 e d2 [Ec]2 | [Fd]6 z2 |] %8
w: |||
V:2
 D,2 F,>G, A,2 [F,A,]2 | [D,D]6 [F,C]2 | [G,B,]3 [G,B,G] [G,B,G]2 [G,DG]2 | [D,D]6 z2 | %4
 [A,E]2 [G,A,C]>[F,A,D] [E,A,E]2 A,,2 | [D,D]2 [D,D]2 [F,D]2 [G,D]2 | %6
 [A,DA]3 [A,CG] [A,DF]2[K:bass] [A,,A,]2 | [D,A,]6 z2 |] %8

